austria/municipalities/41704.svg

<?xml version="1.0" encoding="UTF-8"?>
<!DOCTYPE svg PUBLIC "-//W3C//DTD SVG 1.1//EN" "http://www.w3.org/Graphics/SVG/1.1/DTD/svg11.dtd">
<svg xmlns="http://www.w3.org/2000/svg" version="1.1" width="100px" height="122px" style="shape-rendering:geometricPrecision; text-rendering:geometricPrecision; image-rendering:optimizeQuality; fill-rule:evenodd; clip-rule:evenodd" xmlns:xlink="http://www.w3.org/1999/xlink">
<g><path style="opacity:1" fill="#f8f8f7" d="M -0.5,-0.5 C 32.8333,-0.5 66.1667,-0.5 99.5,-0.5C 99.5,40.1667 99.5,80.8333 99.5,121.5C 66.1667,121.5 32.8333,121.5 -0.5,121.5C -0.5,80.8333 -0.5,40.1667 -0.5,-0.5 Z"/></g>
<g><path style="opacity:1" fill="#1c1817" d="M 97.5,25.5 C 96.8333,17.8333 96.1667,10.1667 95.5,2.5C 69.1667,2.5 42.8333,2.5 16.5,2.5C 13.1501,2.33499 9.81677,2.50166 6.5,3C 7.33663,4.01127 7.66997,5.17793 7.5,6.5C 6.72813,5.30646 5.72813,4.30646 4.5,3.5C 4.44001,2.95691 4.10667,2.62358 3.5,2.5C 2.17822,11.6582 2.17822,20.6582 3.5,29.5C 2.65859,31.3792 2.32526,33.3792 2.5,35.5C 2.17096,49.3435 2.50429,63.0102 3.5,76.5C 3.5,77.8333 3.5,79.1667 3.5,80.5C 3.73731,81.791 3.40397,82.791 2.5,83.5C 1.53409,55.8586 1.20075,28.1919 1.5,0.5C 33.5,0.5 65.5,0.5 97.5,0.5C 97.5,8.83333 97.5,17.1667 97.5,25.5 Z"/></g>
<g><path style="opacity:1" fill="#8b7d5a" d="M 16.5,2.5 C 42.8333,2.5 69.1667,2.5 95.5,2.5C 95.5,2.83333 95.5,3.16667 95.5,3.5C 69.9945,3.16893 44.6612,3.50226 19.5,4.5C 17.9731,4.57298 16.9731,3.90632 16.5,2.5 Z"/></g>
<g><path style="opacity:1" fill="#a2abab" d="M 4.5,3.5 C 5.72813,4.30646 6.72813,5.30646 7.5,6.5C 8.20261,8.71572 9.53594,10.549 11.5,12C 16.7322,13.7008 22.0655,15.0341 27.5,16C 30.0574,18.8922 32.224,22.0589 34,25.5C 35.8734,27.7089 38.04,29.5422 40.5,31C 45.7933,31.7578 50.7933,33.4245 55.5,36C 58.5409,39.9123 61.2076,44.0789 63.5,48.5C 60.1256,52.8755 56.1256,56.5422 51.5,59.5C 48.3456,56.7567 45.0122,54.2567 41.5,52C 37.2318,51.9694 33.2318,50.9694 29.5,49C 26.5,44.6667 23.5,40.3333 20.5,36C 16.7185,34.1729 12.7185,33.1729 8.5,33C 6.67694,32.0027 5.01027,30.8361 3.5,29.5C 3.17364,20.6506 3.50698,11.9839 4.5,3.5 Z"/></g>
<g><path style="opacity:1" fill="#4c913d" d="M 60.5,9.5 C 72.9099,8.58318 79.2432,14.2498 79.5,26.5C 80.3007,28.0418 80.634,29.7085 80.5,31.5C 78.5973,36.8545 75.5973,41.5212 71.5,45.5C 70.6043,46.5063 69.9377,46.5063 69.5,45.5C 73.922,39.7729 76.922,33.4396 78.5,26.5C 77.9886,21.1413 75.6552,16.808 71.5,13.5C 71.0825,12.7784 70.4158,12.2784 69.5,12C 66.1667,11.6667 62.8333,11.3333 59.5,11C 60.056,10.6174 60.3893,10.1174 60.5,9.5 Z"/></g>
<g><path style="opacity:1" fill="#6f7374" d="M 4.5,3.5 C 3.50698,11.9839 3.17364,20.6506 3.5,29.5C 2.17822,20.6582 2.17822,11.6582 3.5,2.5C 4.10667,2.62358 4.44001,2.95691 4.5,3.5 Z"/></g>
<g><path style="opacity:1" fill="#a6955c" d="M 95.5,3.5 C 95.5,21.5 95.5,39.5 95.5,57.5C 88.1677,54.0036 81.501,49.5036 75.5,44C 78.439,40.2886 80.439,36.1219 81.5,31.5C 83.4123,23.3297 86.7456,15.663 91.5,8.5C 91.1667,8.16667 90.8333,7.83333 90.5,7.5C 86.8132,10.3531 83.6465,13.6865 81,17.5C 74.9446,8.01422 66.4446,5.18089 55.5,9C 51.2823,11.2823 47.6156,14.2823 44.5,18C 43.2713,18.7811 41.938,19.2811 40.5,19.5C 32.9447,15.2274 25.9447,10.2274 19.5,4.5C 44.6612,3.50226 69.9945,3.16893 95.5,3.5 Z"/></g>
<g><path style="opacity:1" fill="#2c2520" d="M 16.5,2.5 C 16.9731,3.90632 17.9731,4.57298 19.5,4.5C 25.9447,10.2274 32.9447,15.2274 40.5,19.5C 41.938,19.2811 43.2713,18.7811 44.5,18C 47.6156,14.2823 51.2823,11.2823 55.5,9C 66.4446,5.18089 74.9446,8.01422 81,17.5C 83.6465,13.6865 86.8132,10.3531 90.5,7.5C 90.8333,7.83333 91.1667,8.16667 91.5,8.5C 86.7456,15.663 83.4123,23.3297 81.5,31.5C 82.0139,26.29 83.3472,21.29 85.5,16.5C 85.1543,15.3044 84.6543,15.3044 84,16.5C 81.6821,19.5937 80.1821,22.9271 79.5,26.5C 79.2432,14.2498 72.9099,8.58318 60.5,9.5C 53.7349,11.9298 48.0683,15.9298 43.5,21.5C 43.8333,22.5 44.5,23.1667 45.5,23.5C 51.2826,12.9499 59.9493,9.6166 71.5,13.5C 75.6552,16.808 77.9886,21.1413 78.5,26.5C 76.922,33.4396 73.922,39.7729 69.5,45.5C 59.779,54.5541 50.779,63.5541 42.5,72.5C 44.7,70.4768 45.3667,68.1435 44.5,65.5C 31.1249,55.7766 17.7916,46.11 4.5,36.5C 4.15829,35.6618 3.49162,35.3284 2.5,35.5C 2.32526,33.3792 2.65859,31.3792 3.5,29.5C 5.01027,30.8361 6.67694,32.0027 8.5,33C 12.7185,33.1729 16.7185,34.1729 20.5,36C 23.5,40.3333 26.5,44.6667 29.5,49C 33.2318,50.9694 37.2318,51.9694 41.5,52C 45.0122,54.2567 48.3456,56.7567 51.5,59.5C 56.1256,56.5422 60.1256,52.8755 63.5,48.5C 61.2076,44.0789 58.5409,39.9123 55.5,36C 50.7933,33.4245 45.7933,31.7578 40.5,31C 38.04,29.5422 35.8734,27.7089 34,25.5C 32.224,22.0589 30.0574,18.8922 27.5,16C 22.0655,15.0341 16.7322,13.7008 11.5,12C 9.53594,10.549 8.20261,8.71572 7.5,6.5C 7.66997,5.17793 7.33663,4.01127 6.5,3C 9.81677,2.50166 13.1501,2.33499 16.5,2.5 Z"/></g>
<g><path style="opacity:1" fill="#44653d" d="M 81.5,31.5 C 81.1667,31.5 80.8333,31.5 80.5,31.5C 80.634,29.7085 80.3007,28.0418 79.5,26.5C 80.1821,22.9271 81.6821,19.5937 84,16.5C 84.6543,15.3044 85.1543,15.3044 85.5,16.5C 83.3472,21.29 82.0139,26.29 81.5,31.5 Z"/></g>
<g><path style="opacity:1" fill="#49723d" d="M 60.5,9.5 C 60.3893,10.1174 60.056,10.6174 59.5,11C 62.8333,11.3333 66.1667,11.6667 69.5,12C 70.4158,12.2784 71.0825,12.7784 71.5,13.5C 59.9493,9.6166 51.2826,12.9499 45.5,23.5C 44.5,23.1667 43.8333,22.5 43.5,21.5C 48.0683,15.9298 53.7349,11.9298 60.5,9.5 Z"/></g>
<g><path style="opacity:1" fill="#a5935a" d="M 58.5,13.5 C 70.4286,12.6053 76.2619,17.9386 76,29.5C 74.3224,33.5322 72.1557,37.1988 69.5,40.5C 61.863,35.5216 54.5297,30.1883 47.5,24.5C 50.2155,19.7844 53.8822,16.1177 58.5,13.5 Z"/></g>
<g><path style="opacity:1" fill="#a6955b" d="M 4.5,36.5 C 17.7916,46.11 31.1249,55.7766 44.5,65.5C 45.3667,68.1435 44.7,70.4768 42.5,72.5C 41.8333,72.8333 41.1667,73.1667 40.5,73.5C 38.8619,63.7204 33.1953,60.2204 23.5,63C 20.2608,64.7364 17.9274,67.2364 16.5,70.5C 16.0574,73.8144 15.0574,76.981 13.5,80C 16.3676,82.8943 16.8676,86.0609 15,89.5C 12.4355,87.8207 9.60213,87.154 6.5,87.5C 5.3485,85.2209 4.3485,82.8876 3.5,80.5C 3.5,79.1667 3.5,77.8333 3.5,76.5C 3.17107,62.9895 3.5044,49.6562 4.5,36.5 Z"/></g>
<g><path style="opacity:1" fill="#695a3f" d="M 2.5,35.5 C 3.49162,35.3284 4.15829,35.6618 4.5,36.5C 3.5044,49.6562 3.17107,62.9895 3.5,76.5C 2.50429,63.0102 2.17096,49.3435 2.5,35.5 Z"/></g>
<g><path style="opacity:1" fill="#2a251e" d="M 80.5,31.5 C 80.8333,31.5 81.1667,31.5 81.5,31.5C 80.439,36.1219 78.439,40.2886 75.5,44C 81.501,49.5036 88.1677,54.0036 95.5,57.5C 95.7359,60.6085 95.4025,63.6085 94.5,66.5C 93.0783,66.2914 91.745,65.7914 90.5,65C 88.0446,61.9223 85.7113,58.7556 83.5,55.5C 78.569,53.9837 73.569,52.6504 68.5,51.5C 62.8333,55.1667 58.1667,59.8333 54.5,65.5C 55.2531,67.7534 56.5864,69.5867 58.5,71C 64.0223,72.063 69.3557,73.7297 74.5,76C 78.5398,80.5939 82.2065,85.4272 85.5,90.5C 84.2617,90.81 84.2617,91.31 85.5,92C 90.7917,92.3622 91.4583,93.8622 87.5,96.5C 75.1403,87.7966 62.807,79.1299 50.5,70.5C 48.8333,71.5 47.5,72.8333 46.5,74.5C 62.8272,75.2805 67.6605,82.9472 61,97.5C 58.2567,99.7879 55.4233,101.955 52.5,104C 46.1811,105.082 39.8477,106.082 33.5,107C 31.1667,108.167 28.8333,109.333 26.5,110.5C 25.6764,107.215 25.1764,103.882 25,100.5C 22.6142,96.3957 20.7809,92.0623 19.5,87.5C 18.207,86.158 17.3736,84.4913 17,82.5C 16.5012,78.5138 16.3345,74.5138 16.5,70.5C 17.9274,67.2364 20.2608,64.7364 23.5,63C 33.1953,60.2204 38.8619,63.7204 40.5,73.5C 41.7804,74.9313 43.4471,75.5979 45.5,75.5C 45.3505,74.448 45.5172,73.448 46,72.5C 48,69.8333 50,67.1667 52,64.5C 58.4159,57.9153 64.9159,51.5819 71.5,45.5C 75.5973,41.5212 78.5973,36.8545 80.5,31.5 Z"/></g>
<g><path style="opacity:1" fill="#a1abab" d="M 94.5,66.5 C 95.4581,75.111 94.1247,83.2777 90.5,91C 88.735,91.6397 87.0683,91.4731 85.5,90.5C 82.2065,85.4272 78.5398,80.5939 74.5,76C 69.3557,73.7297 64.0223,72.063 58.5,71C 56.5864,69.5867 55.2531,67.7534 54.5,65.5C 58.1667,59.8333 62.8333,55.1667 68.5,51.5C 73.569,52.6504 78.569,53.9837 83.5,55.5C 85.7113,58.7556 88.0446,61.9223 90.5,65C 91.745,65.7914 93.0783,66.2914 94.5,66.5 Z"/></g>
<g><path style="opacity:1" fill="#4c5e3d" d="M 69.5,45.5 C 69.9377,46.5063 70.6043,46.5063 71.5,45.5C 64.9159,51.5819 58.4159,57.9153 52,64.5C 50,67.1667 48,69.8333 46,72.5C 45.5172,73.448 45.3505,74.448 45.5,75.5C 43.4471,75.5979 41.7804,74.9313 40.5,73.5C 41.1667,73.1667 41.8333,72.8333 42.5,72.5C 50.779,63.5541 59.779,54.5541 69.5,45.5 Z"/></g>
<g><path style="opacity:1" fill="#458d3c" d="M 19.5,87.5 C 18.5261,81.5283 18.3594,75.5283 19,69.5C 23.9714,64.6393 29.6381,63.6393 36,66.5C 37.9355,68.7803 38.7689,71.447 38.5,74.5C 36.2439,82.352 33.4106,90.0186 30,97.5C 29.3333,98.8333 29.3333,100.167 30,101.5C 33.5766,92.5953 38.7432,84.762 45.5,78C 60.183,75.6826 65.0164,81.5159 60,95.5C 58.2613,97.2834 56.4279,98.9501 54.5,100.5C 45.901,102.824 37.2343,104.824 28.5,106.5C 26.85,100.407 24.5166,94.5735 21.5,89C 21.1639,87.9701 20.4972,87.4701 19.5,87.5 Z"/></g>
<g><path style="opacity:1" fill="#a4945c" d="M 16.5,70.5 C 16.3345,74.5138 16.5012,78.5138 17,82.5C 17.3736,84.4913 18.207,86.158 19.5,87.5C 20.7809,92.0623 22.6142,96.3957 25,100.5C 25.1764,103.882 25.6764,107.215 26.5,110.5C 28.8333,109.333 31.1667,108.167 33.5,107C 39.8477,106.082 46.1811,105.082 52.5,104C 55.4233,101.955 58.2567,99.7879 61,97.5C 67.6605,82.9472 62.8272,75.2805 46.5,74.5C 47.5,72.8333 48.8333,71.5 50.5,70.5C 62.807,79.1299 75.1403,87.7966 87.5,96.5C 82.1462,106.041 74.1462,112.541 63.5,116C 40.9237,121.924 23.0903,115.424 10,96.5C 8.27757,93.7209 7.11091,90.7209 6.5,87.5C 9.60213,87.154 12.4355,87.8207 15,89.5C 16.8676,86.0609 16.3676,82.8943 13.5,80C 15.0574,76.981 16.0574,73.8144 16.5,70.5 Z"/></g>
<g><path style="opacity:1" fill="#221e1b" d="M 95.5,2.5 C 96.1667,10.1667 96.8333,17.8333 97.5,25.5C 97.6666,40.837 97.4999,56.1703 97,71.5C 94.7249,101.608 78.5582,117.942 48.5,120.5C 24.8211,118.483 9.48778,106.15 2.5,83.5C 3.40397,82.791 3.73731,81.791 3.5,80.5C 4.3485,82.8876 5.3485,85.2209 6.5,87.5C 7.11091,90.7209 8.27757,93.7209 10,96.5C 23.0903,115.424 40.9237,121.924 63.5,116C 74.1462,112.541 82.1462,106.041 87.5,96.5C 91.4583,93.8622 90.7917,92.3622 85.5,92C 84.2617,91.31 84.2617,90.81 85.5,90.5C 87.0683,91.4731 88.735,91.6397 90.5,91C 94.1247,83.2777 95.4581,75.111 94.5,66.5C 95.4025,63.6085 95.7359,60.6085 95.5,57.5C 95.5,39.5 95.5,21.5 95.5,3.5C 95.5,3.16667 95.5,2.83333 95.5,2.5 Z"/></g>
</svg>

<svg xmlns="http://www.w3.org/2000/svg" width="100" height="122" style="shape-rendering:geometricPrecision;text-rendering:geometricPrecision;image-rendering:optimizeQuality;fill-rule:evenodd;clip-rule:evenodd"><path style="opacity:1" fill="#f8f8f7" d="M-.5-.5h100v122H-.5V-.5z"/><path style="opacity:1" fill="#1c1817" d="m97.5 25.5-2-23h-79a50.437 50.437 0 0 0-10 .5c.837 1.011 1.17 2.178 1 3.5a10.173 10.173 0 0 0-3-3c-.06-.543-.393-.876-1-1-1.322 9.158-1.322 18.158 0 27-.841 1.88-1.175 3.88-1 6a420.847 420.847 0 0 0 1 41v4c.237 1.291-.096 2.291-1 3-.966-27.641-1.3-55.308-1-83h96v25z"/><path style="opacity:1" fill="#8b7d5a" d="M16.5 2.5h79v1c-25.505-.331-50.839.002-76 1-1.527.073-2.527-.594-3-2z"/><path style="opacity:1" fill="#a2abab" d="M4.5 3.5a10.173 10.173 0 0 1 3 3c.703 2.216 2.036 4.049 4 5.5a119.124 119.124 0 0 0 16 4 46.434 46.434 0 0 1 6.5 9.5 25.556 25.556 0 0 0 6.5 5.5 43.99 43.99 0 0 1 15 5 81.319 81.319 0 0 1 8 12.5 47.078 47.078 0 0 1-12 11 86.35 86.35 0 0 0-10-7.5c-4.268-.03-8.268-1.03-12-3l-9-13a30.131 30.131 0 0 0-12-3 27.258 27.258 0 0 1-5-3.5c-.326-8.85.007-17.516 1-26z"/><path style="opacity:1" fill="#4c913d" d="M60.5 9.5c12.41-.917 18.743 4.75 19 17 .8 1.542 1.134 3.209 1 5-1.903 5.355-4.903 10.021-9 14-.896 1.006-1.562 1.006-2 0 4.422-5.727 7.422-12.06 9-19-.511-5.359-2.845-9.692-7-13-.418-.722-1.084-1.222-2-1.5l-10-1c.556-.383.89-.883 1-1.5z"/><path style="opacity:1" fill="#6f7374" d="M4.5 3.5c-.993 8.484-1.326 17.15-1 26-1.322-8.842-1.322-17.842 0-27 .607.124.94.457 1 1z"/><path style="opacity:1" fill="#a6955c" d="M95.5 3.5v54a81.035 81.035 0 0 1-20-13.5 31.096 31.096 0 0 0 6-12.5c1.912-8.17 5.246-15.837 10-23l-1-1a45.06 45.06 0 0 0-9.5 10C74.945 8.014 66.445 5.18 55.5 9c-4.218 2.282-7.884 5.282-11 9a10.253 10.253 0 0 1-4 1.5 121.698 121.698 0 0 1-21-15 1444.602 1444.602 0 0 1 76-1z"/><path style="opacity:1" fill="#2c2520" d="M16.5 2.5c.473 1.406 1.473 2.073 3 2a121.698 121.698 0 0 0 21 15 10.253 10.253 0 0 0 4-1.5c3.116-3.718 6.782-6.718 11-9 10.945-3.82 19.445-.986 25.5 8.5a45.06 45.06 0 0 1 9.5-10l1 1c-4.754 7.163-8.088 14.83-10 23a47.802 47.802 0 0 1 4-15c-.346-1.196-.846-1.196-1.5 0-2.318 3.094-3.818 6.427-4.5 10-.257-12.25-6.59-17.917-19-17-6.765 2.43-12.432 6.43-17 12 .333 1 1 1.667 2 2 5.783-10.55 14.45-13.883 26-10 4.155 3.308 6.489 7.641 7 13-1.578 6.94-4.578 13.273-9 19-9.721 9.054-18.721 18.054-27 27 2.2-2.023 2.867-4.356 2-7a19011.707 19011.707 0 0 0-40-29c-.342-.838-1.008-1.172-2-1-.175-2.12.159-4.12 1-6a27.258 27.258 0 0 0 5 3.5 30.131 30.131 0 0 1 12 3l9 13c3.732 1.97 7.732 2.97 12 3a86.35 86.35 0 0 1 10 7.5 47.078 47.078 0 0 0 12-11 81.319 81.319 0 0 0-8-12.5 43.99 43.99 0 0 0-15-5 25.556 25.556 0 0 1-6.5-5.5 46.434 46.434 0 0 0-6.5-9.5 119.124 119.124 0 0 1-16-4c-1.964-1.451-3.297-3.284-4-5.5.17-1.322-.163-2.489-1-3.5a50.437 50.437 0 0 1 10-.5z"/><path style="opacity:1" fill="#44653d" d="M81.5 31.5h-1c.134-1.791-.2-3.458-1-5 .682-3.573 2.182-6.906 4.5-10 .654-1.196 1.154-1.196 1.5 0a47.802 47.802 0 0 0-4 15z"/><path style="opacity:1" fill="#49723d" d="M60.5 9.5c-.11.617-.444 1.117-1 1.5l10 1c.916.278 1.582.778 2 1.5-11.55-3.883-20.217-.55-26 10-1-.333-1.667-1-2-2 4.568-5.57 10.235-9.57 17-12z"/><path style="opacity:1" fill="#a5935a" d="M58.5 13.5c11.929-.895 17.762 4.439 17.5 16-1.678 4.032-3.844 7.699-6.5 11a265.031 265.031 0 0 1-22-16c2.715-4.716 6.382-8.382 11-11z"/><path style="opacity:1" fill="#a6955b" d="M4.5 36.5c13.292 9.61 26.625 19.277 40 29 .867 2.644.2 4.977-2 7l-2 1c-1.638-9.78-7.305-13.28-17-10.5-3.24 1.736-5.573 4.236-7 7.5a28.934 28.934 0 0 1-3 9.5c2.868 2.894 3.368 6.06 1.5 9.5-2.565-1.68-5.398-2.346-8.5-2a60.243 60.243 0 0 1-3-7v-4a400.594 400.594 0 0 1 1-40z"/><path style="opacity:1" fill="#695a3f" d="M2.5 35.5c.992-.172 1.658.162 2 1a400.594 400.594 0 0 0-1 40 420.847 420.847 0 0 1-1-41z"/><path style="opacity:1" fill="#2a251e" d="M80.5 31.5h1a31.096 31.096 0 0 1-6 12.5 81.035 81.035 0 0 0 20 13.5c.236 3.108-.097 6.108-1 9a10.123 10.123 0 0 1-4-1.5 153.732 153.732 0 0 1-7-9.5 206.53 206.53 0 0 0-15-4 46.728 46.728 0 0 0-14 14c.753 2.253 2.086 4.087 4 5.5a74.277 74.277 0 0 1 16 5 125.069 125.069 0 0 1 11 14.5c-1.238.31-1.238.81 0 1.5 5.292.362 5.958 1.862 2 4.5a22845.96 22845.96 0 0 0-37-26c-1.667 1-3 2.333-4 4 16.327.78 21.16 8.447 14.5 23a126.315 126.315 0 0 1-8.5 6.5 740.84 740.84 0 0 1-19 3l-7 3.5a52.204 52.204 0 0 1-1.5-10 55.755 55.755 0 0 1-5.5-13c-1.293-1.342-2.126-3.009-2.5-5a72.444 72.444 0 0 1-.5-12c1.427-3.264 3.76-5.764 7-7.5 9.695-2.78 15.362.72 17 10.5 1.28 1.431 2.947 2.098 5 2a4.932 4.932 0 0 1 .5-3l6-8a517.52 517.52 0 0 1 19.5-19c4.097-3.979 7.097-8.645 9-14z"/><path style="opacity:1" fill="#a1abab" d="M94.5 66.5c.958 8.611-.375 16.778-4 24.5-1.765.64-3.432.473-5-.5a125.069 125.069 0 0 0-11-14.5 74.277 74.277 0 0 0-16-5c-1.914-1.413-3.247-3.247-4-5.5a46.728 46.728 0 0 1 14-14 206.53 206.53 0 0 1 15 4 153.732 153.732 0 0 0 7 9.5 10.123 10.123 0 0 0 4 1.5z"/><path style="opacity:1" fill="#4c5e3d" d="M69.5 45.5c.438 1.006 1.104 1.006 2 0a517.52 517.52 0 0 0-19.5 19l-6 8a4.932 4.932 0 0 0-.5 3c-2.053.098-3.72-.569-5-2l2-1c8.279-8.946 17.279-17.946 27-27z"/><path style="opacity:1" fill="#458d3c" d="M19.5 87.5a67.209 67.209 0 0 1-.5-18c4.971-4.86 10.638-5.86 17-3 1.935 2.28 2.769 4.947 2.5 8a165.671 165.671 0 0 1-8.5 23c-.667 1.333-.667 2.667 0 4 3.577-8.905 8.743-16.738 15.5-23.5 14.683-2.317 19.516 3.516 14.5 17.5a61.436 61.436 0 0 1-5.5 5 358.726 358.726 0 0 1-26 6 81.282 81.282 0 0 0-7-17.5c-.336-1.03-1.003-1.53-2-1.5z"/><path style="opacity:1" fill="#a4945c" d="M16.5 70.5a72.444 72.444 0 0 0 .5 12c.374 1.991 1.207 3.658 2.5 5a55.755 55.755 0 0 0 5.5 13 52.204 52.204 0 0 0 1.5 10l7-3.5a740.84 740.84 0 0 0 19-3 126.315 126.315 0 0 0 8.5-6.5c6.66-14.553 1.827-22.22-14.5-23 1-1.667 2.333-3 4-4a22845.96 22845.96 0 0 1 37 26c-5.354 9.541-13.354 16.041-24 19.5-22.576 5.924-40.41-.576-53.5-19.5a26.212 26.212 0 0 1-3.5-9c3.102-.346 5.935.32 8.5 2 1.868-3.44 1.368-6.606-1.5-9.5a28.934 28.934 0 0 0 3-9.5z"/><path style="opacity:1" fill="#221e1b" d="m95.5 2.5 2 23c.167 15.337 0 30.67-.5 46-2.275 30.108-18.442 46.442-48.5 49-23.679-2.017-39.012-14.35-46-37 .904-.709 1.237-1.709 1-3a60.243 60.243 0 0 0 3 7c.61 3.22 1.778 6.22 3.5 9 13.09 18.924 30.924 25.424 53.5 19.5 10.646-3.459 18.646-9.959 24-19.5 3.958-2.638 3.292-4.138-2-4.5-1.238-.69-1.238-1.19 0-1.5 1.568.973 3.235 1.14 5 .5 3.625-7.722 4.958-15.889 4-24.5.903-2.892 1.236-5.892 1-9v-55z"/></svg>
